images/dinamic.svg

<svg width="70" height="70" viewBox="0 0 70 70" fill="none" xmlns="http://www.w3.org/2000/svg">
<rect width="70" height="70" rx="10" fill="#FFF4F2"/>
<path d="M35.009 44.3518C35.009 44.8803 34.7037 45.3604 34.2258 45.5845C34.041 45.6719 33.8431 45.7141 33.6464 45.7141C33.3349 45.7141 33.0263 45.6071 32.777 45.4004L25.3291 39.2287H21.3623C20.6101 39.2293 20 38.619 20 37.8667V32.4389C20 31.6863 20.6101 31.0762 21.3623 31.0762H25.3294L32.7774 24.9046C33.1843 24.5673 33.7486 24.4954 34.2261 24.7211C34.7037 24.9452 35.0094 25.4256 35.0094 25.9538L35.009 44.3518ZM40.2446 42.223C40.2114 42.2252 40.1795 42.2265 40.1466 42.2265C39.7868 42.2265 39.4398 42.0843 39.1835 41.8276L39.0013 41.6448C38.5234 41.1679 38.4673 40.4124 38.8697 39.8701C39.8899 38.4945 40.4284 36.8639 40.4284 35.1533C40.4284 33.3134 39.8171 31.5876 38.6601 30.1624C38.2197 29.6207 38.2603 28.8339 38.7539 28.3406L38.9358 28.1584C39.208 27.8862 39.5726 27.7379 39.9673 27.7615C40.3517 27.7808 40.7106 27.9617 40.9543 28.2596C42.5592 30.2233 43.4069 32.6075 43.4069 35.1536C43.4069 37.5249 42.6572 39.782 41.2384 41.68C41.0014 41.9963 40.639 42.1949 40.2446 42.223ZM45.8772 46.4332C45.6308 46.7243 45.2745 46.8991 44.8931 46.9152C44.8743 46.9159 44.8553 46.9165 44.836 46.9165C44.4752 46.9165 44.1289 46.774 43.8725 46.5177L43.6935 46.3387C43.1934 45.8389 43.1596 45.0396 43.6142 44.4985C45.8114 41.8854 47.0219 38.5667 47.0219 35.1533C47.0219 31.6028 45.7259 28.1848 43.3737 25.5291C42.8968 24.99 42.921 24.1739 43.4285 23.6644L43.6071 23.4855C43.8722 23.2191 44.2166 23.0724 44.6116 23.085C44.9866 23.0956 45.3413 23.2614 45.5905 23.5419C48.4339 26.7432 50 30.8673 50 35.1533C50.0006 39.2771 48.5364 43.2832 45.8772 46.4332Z" fill="#FF6652"/>
</svg>

<svg xmlns="http://www.w3.org/2000/svg" width="70" height="70" fill="none"><rect width="70" height="70" fill="#FFF4F2" rx="10"/><path fill="#FF6652" d="M35.009 44.352a1.361 1.361 0 0 1-2.232 1.048l-7.448-6.171h-3.967c-.752 0-1.362-.61-1.362-1.362v-5.428c0-.753.61-1.363 1.362-1.363h3.967l7.448-6.171a1.362 1.362 0 0 1 2.232 1.05V44.35Zm5.236-2.129a1.36 1.36 0 0 1-1.061-.395L39 41.645a1.361 1.361 0 0 1-.131-1.775 7.862 7.862 0 0 0 1.558-4.717c0-1.84-.61-3.565-1.768-4.99-.44-.542-.4-1.33.094-1.822l.182-.183c.272-.272.637-.42 1.031-.396.385.019.744.2.987.498a10.774 10.774 0 0 1 2.453 6.894c0 2.37-.75 4.628-2.169 6.526-.237.316-.599.515-.993.543Zm5.632 4.21a1.364 1.364 0 0 1-2.005.085l-.178-.18c-.5-.5-.534-1.298-.08-1.84a14.543 14.543 0 0 0 3.408-9.345c0-3.55-1.296-6.968-3.648-9.624a1.363 1.363 0 0 1 .054-1.865l.18-.179c.264-.266.609-.413 1.004-.4.375.01.73.176.978.457A17.468 17.468 0 0 1 50 35.153c0 4.124-1.464 8.13-4.123 11.28Z"/></svg>
